apps/client/src/assets/images/bg_geometrik.svg

<svg width="1830" height="602" viewBox="0 0 1830 602" fill="none" xmlns="http://www.w3.org/2000/svg">
<g opacity="0.3">
<path d="M608.98 87.9907C615.972 80.9968 615.972 69.6574 608.98 62.6636C601.988 55.6697 590.652 55.6697 583.66 62.6636C576.668 69.6575 576.668 80.9968 583.66 87.9907C590.652 94.9846 601.988 94.9846 608.98 87.9907Z" stroke="#D5F2E8" stroke-width="15" stroke-miterlimit="10"/>
<path d="M832.765 585.552C855.279 585.552 873.53 567.296 873.53 544.776C873.53 522.256 855.279 504 832.765 504C810.251 504 792 522.256 792 544.776C792 567.296 810.251 585.552 832.765 585.552Z" stroke="#D5F2E8" stroke-width="20" stroke-miterlimit="10"/>
<path d="M1557 467C1563.78 467 1563.78 471.047 1570.45 471.047C1577.23 471.047 1577.23 467 1583.91 467C1590.68 467 1590.68 471.047 1597.36 471.047C1604.14 471.047 1604.14 467 1610.81 467C1617.59 467 1617.59 471.047 1624.27 471.047C1631.04 471.047 1631.04 467 1637.72 467C1644.5 467 1644.5 471.047 1651.17 471.047C1657.95 471.047 1657.95 467 1664.63 467C1671.41 467 1671.41 471.047 1678.08 471.047C1684.86 471.047 1684.86 467 1691.54 467C1698.31 467 1698.31 471.047 1704.99 471.047C1711.77 471.047 1711.77 467 1718.44 467C1725.22 467 1725.22 471.047 1731.9 471.047C1738.67 471.047 1738.67 467 1745.35 467C1752.13 467 1752.13 471.047 1758.8 471.047C1765.58 471.047 1765.58 467 1772.26 467C1779.03 467 1779.03 471.047 1785.71 471.047C1792.49 471.047 1792.49 467 1799.16 467" stroke="#3C4973" stroke-width="2" stroke-miterlimit="10"/>
<path d="M1557 484.504C1563.78 484.504 1563.78 488.552 1570.45 488.552C1577.23 488.552 1577.23 484.504 1583.91 484.504C1590.68 484.504 1590.68 488.552 1597.36 488.552C1604.14 488.552 1604.14 484.504 1610.81 484.504C1617.59 484.504 1617.59 488.552 1624.27 488.552C1631.04 488.552 1631.04 484.504 1637.72 484.504C1644.5 484.504 1644.5 488.552 1651.17 488.552C1657.95 488.552 1657.95 484.504 1664.63 484.504C1671.41 484.504 1671.41 488.552 1678.08 488.552C1684.86 488.552 1684.86 484.504 1691.54 484.504C1698.31 484.504 1698.31 488.552 1704.99 488.552C1711.77 488.552 1711.77 484.504 1718.44 484.504C1725.22 484.504 1725.22 488.552 1731.9 488.552C1738.67 488.552 1738.67 484.504 1745.35 484.504C1752.13 484.504 1752.13 488.552 1758.8 488.552C1765.58 488.552 1765.58 484.504 1772.26 484.504C1779.03 484.504 1779.03 488.552 1785.71 488.552C1792.49 488.552 1792.49 484.504 1799.16 484.504" stroke="#3C4973" stroke-width="2" stroke-miterlimit="10"/>
<path d="M1557 501.908C1563.78 501.908 1563.78 505.955 1570.45 505.955C1577.23 505.955 1577.23 501.908 1583.91 501.908C1590.68 501.908 1590.68 505.955 1597.36 505.955C1604.14 505.955 1604.14 501.908 1610.81 501.908C1617.59 501.908 1617.59 505.955 1624.27 505.955C1631.04 505.955 1631.04 501.908 1637.72 501.908C1644.5 501.908 1644.5 505.955 1651.17 505.955C1657.95 505.955 1657.95 501.908 1664.63 501.908C1671.41 501.908 1671.41 505.955 1678.08 505.955C1684.86 505.955 1684.86 501.908 1691.54 501.908C1698.31 501.908 1698.31 505.955 1704.99 505.955C1711.77 505.955 1711.77 501.908 1718.44 501.908C1725.22 501.908 1725.22 505.955 1731.9 505.955C1738.67 505.955 1738.67 501.908 1745.35 501.908C1752.13 501.908 1752.13 505.955 1758.8 505.955C1765.58 505.955 1765.58 501.908 1772.26 501.908C1779.03 501.908 1779.03 505.955 1785.71 505.955C1792.49 505.955 1792.49 501.908 1799.16 501.908" stroke="#3C4973" stroke-width="2" stroke-miterlimit="10"/>
<path d="M1557 519.311C1563.78 519.311 1563.78 523.358 1570.45 523.358C1577.23 523.358 1577.23 519.311 1583.91 519.311C1590.68 519.311 1590.68 523.358 1597.36 523.358C1604.14 523.358 1604.14 519.311 1610.81 519.311C1617.59 519.311 1617.59 523.358 1624.27 523.358C1631.04 523.358 1631.04 519.311 1637.72 519.311C1644.5 519.311 1644.5 523.358 1651.17 523.358C1657.95 523.358 1657.95 519.311 1664.63 519.311C1671.41 519.311 1671.41 523.358 1678.08 523.358C1684.86 523.358 1684.86 519.311 1691.54 519.311C1698.31 519.311 1698.31 523.358 1704.99 523.358C1711.77 523.358 1711.77 519.311 1718.44 519.311C1725.22 519.311 1725.22 523.358 1731.9 523.358C1738.67 523.358 1738.67 519.311 1745.35 519.311C1752.13 519.311 1752.13 523.358 1758.8 523.358C1765.58 523.358 1765.58 519.311 1772.26 519.311C1779.03 519.311 1779.03 523.358 1785.71 523.358C1792.49 523.358 1792.49 519.311 1799.16 519.311" stroke="#3C4973" stroke-width="2" stroke-miterlimit="10"/>
<path d="M280.9 120.696C278.27 114.018 281.608 106.531 288.284 103.9C294.96 101.269 302.445 104.608 305.076 111.286C307.706 117.964 304.367 125.452 297.691 128.082" stroke="#3C4973" stroke-width="2" stroke-miterlimit="10"/>
<path d="M28.1687 591.961C33.225 586.903 33.225 578.703 28.1687 573.646C23.1123 568.588 14.9143 568.588 9.85797 573.646C4.80161 578.703 4.80161 586.903 9.85797 591.961C14.9143 597.019 23.1123 597.019 28.1687 591.961Z" stroke="#3C4973" stroke-width="2" stroke-miterlimit="10"/>
<path d="M873.303 109.871L937.333 22.6529V22.5517H937.232L929.747 4.54137L910.224 2.72009L846.295 89.9387L853.78 107.848L873.303 109.77V109.871Z" fill="#FFCE83"/>
<path d="M845.485 106.128L838 88.1174L901.929 1L909.516 18.9092L857.826 89.3316" stroke="#3C4973" stroke-width="2" stroke-miterlimit="10" stroke-linecap="round" stroke-linejoin="round"/>
<path d="M845.485 106.128L865.109 108.05L929.039 20.8316L909.516 18.9091L857.826 89.3316" stroke="#3C4973" stroke-width="2" stroke-miterlimit="10" stroke-linecap="round" stroke-linejoin="round"/>
<path d="M865.008 108.151L857.826 89.3316L838 88.1174L901.929 1L921.452 2.82127L928.938 20.9328L865.008 108.151Z" stroke="#3C4973" stroke-width="2" stroke-miterlimit="10" stroke-linecap="round" stroke-linejoin="round"/>
<path d="M1760.98 188.888C1798.67 177.633 1820.1 137.95 1808.85 100.254C1797.59 62.5585 1757.92 41.1242 1720.24 52.3794C1682.55 63.6347 1661.12 103.317 1672.37 141.013C1683.63 178.709 1723.3 200.143 1760.98 188.888Z" stroke="#FFCE83" stroke-width="2" stroke-miterlimit="10"/>
<path d="M1803.64 126.093C1806.67 91.2443 1780.88 60.5368 1746.04 57.5059C1711.2 54.475 1680.5 80.2683 1677.47 115.117C1674.44 149.966 1700.23 180.673 1735.07 183.704C1769.91 186.735 1800.61 160.942 1803.64 126.093Z" stroke="#FFCE83" stroke-width="2" stroke-miterlimit="10"/>
<path d="M1795.58 128.392C1799.88 98.0166 1778.75 69.9011 1748.39 65.5938C1718.02 61.2865 1689.91 82.4185 1685.61 112.794C1681.3 143.169 1702.43 171.284 1732.79 175.591C1763.16 179.899 1791.27 158.767 1795.58 128.392Z" stroke="#FFCE83" stroke-width="2" stroke-miterlimit="10"/>
<path d="M1740.6 168.414C1766.97 168.414 1788.34 147.032 1788.34 120.656C1788.34 94.2806 1766.97 72.8987 1740.6 72.8987C1714.23 72.8987 1692.86 94.2806 1692.86 120.656C1692.86 147.032 1714.23 168.414 1740.6 168.414Z" stroke="#FFCE83" stroke-width="2" stroke-miterlimit="10"/>
<path d="M1744.96 160.279C1766.84 157.855 1782.61 138.15 1780.19 116.267C1777.76 94.3843 1758.06 78.6099 1736.19 81.034C1714.31 83.4581 1698.54 103.163 1700.96 125.046C1703.39 146.928 1723.09 162.703 1744.96 160.279Z" stroke="#FFCE83" stroke-width="2" stroke-miterlimit="10"/>
<path d="M1766.55 139.416C1776.93 125.06 1773.7 105.01 1759.35 94.6331C1745 84.256 1724.95 87.4813 1714.58 101.837C1704.21 116.193 1707.43 136.243 1721.78 146.62C1736.13 156.997 1756.18 153.771 1766.55 139.416Z" stroke="#FFCE83" stroke-width="2" stroke-miterlimit="10"/>
<path d="M1761.59 132.544C1768.19 120.937 1764.14 106.172 1752.54 99.5663C1740.93 92.9606 1726.17 97.0153 1719.57 108.623C1712.96 120.23 1717.02 134.995 1728.62 141.6C1740.22 148.206 1754.99 144.151 1761.59 132.544Z" stroke="#FFCE83" stroke-width="2" stroke-miterlimit="10"/>
<path d="M1746.39 135.951C1754.86 132.749 1759.13 123.288 1755.92 114.821C1752.72 106.354 1743.26 102.087 1734.8 105.29C1726.33 108.492 1722.07 117.953 1725.27 126.42C1728.47 134.887 1737.93 139.154 1746.39 135.951Z" stroke="#FFCE83" stroke-width="2" stroke-miterlimit="10"/>
<path d="M1732.91 124.603C1730.79 120.353 1732.41 115.193 1736.55 113.068C1740.8 110.943 1745.96 112.562 1748.09 116.71C1750.21 120.96 1748.59 126.12 1744.44 128.245C1740.3 130.37 1735.14 128.751 1732.91 124.603Z" stroke="#FFCE83" stroke-width="2" stroke-miterlimit="10"/>
<path d="M31.5919 6.05257L20.0046 17.643L56.6976 54.3458L68.2848 42.7554L31.5919 6.05257Z" fill="#D5F2E8"/>
<path d="M20 42.7029L31.5872 54.2933L68.2801 17.5904L56.6929 6.00001L20 42.7029Z" fill="#D5F2E8"/>
<path d="M145.126 395.628L113.06 390.063L102.743 359.507L143.609 311.243L185.993 347.365L145.126 395.628Z" fill="#FFCE83"/>
<path d="M109.318 377.821L99 347.264L139.866 299L150.184 329.557L109.318 377.821Z" stroke="#3C4973" stroke-width="2" stroke-miterlimit="10" stroke-linecap="round" stroke-linejoin="round"/>
<path d="M109.318 377.821L141.485 383.284L182.351 334.919L150.184 329.557L109.318 377.821Z" stroke="#3C4973" stroke-width="2" stroke-miterlimit="10" stroke-linecap="round" stroke-linejoin="round"/>
<path d="M141.384 383.386L99 347.264L139.866 299L182.25 335.122L141.384 383.386Z" stroke="#3C4973" stroke-width="2" stroke-miterlimit="10" stroke-linecap="round" stroke-linejoin="round"/>
<path d="M1299.86 383.744C1317.46 383.744 1331.73 369.475 1331.73 351.872C1331.73 334.27 1317.46 320 1299.86 320C1282.27 320 1268 334.27 1268 351.872C1268 369.475 1282.27 383.744 1299.86 383.744Z" fill="#FFCE83"/>
</g>
</svg>

<?xml version="1.0" encoding="utf-8"?>
<!-- Generator: Adobe Illustrator 24.2.3, SVG Export Plug-In . SVG Version: 6.00 Build 0)  -->
<svg version="1.1" id="Capa_1" xmlns="http://www.w3.org/2000/svg" xmlns:xlink="http://www.w3.org/1999/xlink" x="0px" y="0px"
	 viewBox="0 0 1830 602" style="enable-background:new 0 0 1830 602;" xml:space="preserve">
<style type="text/css">
	.st0{opacity:0.3;}
	.st1{fill:none;stroke:#D5F2E8;stroke-width:15;stroke-miterlimit:10;}
	.st2{fill:none;stroke:#D5F2E8;stroke-width:20;stroke-miterlimit:10;}
	.st3{fill:none;stroke:#3C4973;stroke-width:2;stroke-miterlimit:10;}
	.st4{fill:#FFCE83;}
	.st5{fill:none;stroke:#3C4973;stroke-width:2;stroke-linecap:round;stroke-linejoin:round;stroke-miterlimit:10;}
	.st6{fill:none;stroke:#FFCE83;stroke-width:2;stroke-miterlimit:10;}
	.st7{fill:#D5F2E8;}
</style>
<g class="st0">
	<path class="st1" d="M609,88c7-7,7-18.3,0-25.3c-7-7-18.3-7-25.3,0c-7,7-7,18.3,0,25.3C590.7,95,602,95,609,88z"/>
	<path class="st2" d="M832.8,585.6c22.5,0,40.8-18.3,40.8-40.8S855.3,504,832.8,504c-22.5,0-40.8,18.3-40.8,40.8
		S810.3,585.6,832.8,585.6z"/>
	<path class="st3" d="M1557,467c6.8,0,6.8,4,13.4,4c6.8,0,6.8-4,13.5-4c6.8,0,6.8,4,13.4,4c6.8,0,6.8-4,13.5-4c6.8,0,6.8,4,13.5,4
		c6.8,0,6.8-4,13.4-4c6.8,0,6.8,4,13.5,4c6.8,0,6.8-4,13.5-4c6.8,0,6.8,4,13.4,4c6.8,0,6.8-4,13.5-4c6.8,0,6.8,4,13.4,4
		c6.8,0,6.8-4,13.4-4c6.8,0,6.8,4,13.5,4c6.8,0,6.8-4,13.4-4c6.8,0,6.8,4,13.5,4c6.8,0,6.8-4,13.5-4c6.8,0,6.8,4,13.4,4
		c6.8,0,6.8-4,13.5-4"/>
	<path class="st3" d="M1557,484.5c6.8,0,6.8,4,13.4,4c6.8,0,6.8-4,13.5-4c6.8,0,6.8,4,13.4,4c6.8,0,6.8-4,13.5-4c6.8,0,6.8,4,13.5,4
		c6.8,0,6.8-4,13.4-4c6.8,0,6.8,4,13.5,4c6.8,0,6.8-4,13.5-4c6.8,0,6.8,4,13.4,4c6.8,0,6.8-4,13.5-4c6.8,0,6.8,4,13.4,4
		c6.8,0,6.8-4,13.4-4c6.8,0,6.8,4,13.5,4c6.8,0,6.8-4,13.4-4c6.8,0,6.8,4,13.5,4c6.8,0,6.8-4,13.5-4c6.8,0,6.8,4,13.4,4
		c6.8,0,6.8-4,13.5-4"/>
	<path class="st3" d="M1557,501.9c6.8,0,6.8,4,13.4,4c6.8,0,6.8-4,13.5-4c6.8,0,6.8,4,13.4,4c6.8,0,6.8-4,13.5-4c6.8,0,6.8,4,13.5,4
		c6.8,0,6.8-4,13.4-4c6.8,0,6.8,4,13.5,4c6.8,0,6.8-4,13.5-4c6.8,0,6.8,4,13.4,4c6.8,0,6.8-4,13.5-4c6.8,0,6.8,4,13.4,4
		c6.8,0,6.8-4,13.4-4c6.8,0,6.8,4,13.5,4c6.8,0,6.8-4,13.4-4c6.8,0,6.8,4,13.5,4c6.8,0,6.8-4,13.5-4c6.8,0,6.8,4,13.4,4
		c6.8,0,6.8-4,13.5-4"/>
	<path class="st3" d="M1557,519.3c6.8,0,6.8,4,13.4,4c6.8,0,6.8-4,13.5-4c6.8,0,6.8,4,13.4,4c6.8,0,6.8-4,13.5-4c6.8,0,6.8,4,13.5,4
		c6.8,0,6.8-4,13.4-4c6.8,0,6.8,4,13.5,4c6.8,0,6.8-4,13.5-4c6.8,0,6.8,4,13.4,4c6.8,0,6.8-4,13.5-4c6.8,0,6.8,4,13.4,4
		c6.8,0,6.8-4,13.4-4c6.8,0,6.8,4,13.5,4c6.8,0,6.8-4,13.4-4c6.8,0,6.8,4,13.5,4c6.8,0,6.8-4,13.5-4c6.8,0,6.8,4,13.4,4
		c6.8,0,6.8-4,13.5-4"/>
	<path class="st3" d="M280.9,120.7c-2.6-6.7,0.7-14.2,7.4-16.8c6.7-2.6,14.2,0.7,16.8,7.4c2.6,6.7-0.7,14.2-7.4,16.8"/>
	<path class="st3" d="M28.2,592c5.1-5.1,5.1-13.3,0-18.3c-5.1-5.1-13.3-5.1-18.3,0c-5.1,5.1-5.1,13.3,0,18.3
		C14.9,597,23.1,597,28.2,592z"/>
	<path class="st4" d="M873.3,109.9l64-87.2v-0.1h-0.1l-7.5-18l-19.5-1.8l-63.9,87.2l7.5,17.9l19.5,1.9V109.9z"/>
	<path class="st5" d="M845.5,106.1l-7.5-18L901.9,1l7.6,17.9l-51.7,70.4"/>
	<path class="st5" d="M845.5,106.1l19.6,1.9L929,20.8l-19.5-1.9l-51.7,70.4"/>
	<path class="st5" d="M865,108.2l-7.2-18.8L838,88.1L901.9,1l19.5,1.8l7.5,18.1L865,108.2z"/>
	<path class="st6" d="M1761,188.9c37.7-11.3,59.1-50.9,47.9-88.6c-11.3-37.7-50.9-59.1-88.6-47.9c-37.7,11.3-59.1,50.9-47.9,88.6
		C1683.6,178.7,1723.3,200.1,1761,188.9z"/>
	<path class="st6" d="M1803.6,126.1c3-34.8-22.8-65.6-57.6-68.6c-34.8-3-65.5,22.8-68.6,57.6c-3,34.8,22.8,65.6,57.6,68.6
		C1769.9,186.7,1800.6,160.9,1803.6,126.1z"/>
	<path class="st6" d="M1795.6,128.4c4.3-30.4-16.8-58.5-47.2-62.8c-30.4-4.3-58.5,16.8-62.8,47.2c-4.3,30.4,16.8,58.5,47.2,62.8
		C1763.2,179.9,1791.3,158.8,1795.6,128.4z"/>
	<path class="st6" d="M1740.6,168.4c26.4,0,47.7-21.4,47.7-47.8c0-26.4-21.4-47.8-47.7-47.8s-47.7,21.4-47.7,47.8
		C1692.9,147,1714.2,168.4,1740.6,168.4z"/>
	<path class="st6" d="M1745,160.3c21.9-2.4,37.7-22.1,35.2-44c-2.4-21.9-22.1-37.7-44-35.2c-21.9,2.4-37.6,22.1-35.2,44
		C1703.4,146.9,1723.1,162.7,1745,160.3z"/>
	<path class="st6" d="M1766.6,139.4c10.4-14.4,7.1-34.4-7.2-44.8c-14.3-10.4-34.4-7.2-44.8,7.2c-10.4,14.4-7.1,34.4,7.2,44.8
		S1756.2,153.8,1766.6,139.4z"/>
	<path class="st6" d="M1761.6,132.5c6.6-11.6,2.6-26.4-9-33c-11.6-6.6-26.4-2.6-33,9.1c-6.6,11.6-2.5,26.4,9.1,33
		C1740.2,148.2,1755,144.2,1761.6,132.5z"/>
	<path class="st6" d="M1746.4,136c8.5-3.2,12.7-12.7,9.5-21.1c-3.2-8.5-12.7-12.7-21.1-9.5c-8.5,3.2-12.7,12.7-9.5,21.1
		C1728.5,134.9,1737.9,139.2,1746.4,136z"/>
	<path class="st6" d="M1732.9,124.6c-2.1-4.2-0.5-9.4,3.6-11.5c4.2-2.1,9.4-0.5,11.5,3.6c2.1,4.2,0.5,9.4-3.7,11.5
		C1740.3,130.4,1735.1,128.8,1732.9,124.6z"/>
	<path class="st7" d="M31.6,6.1L20,17.6l36.7,36.7l11.6-11.6L31.6,6.1z"/>
	<path class="st7" d="M20,42.7l11.6,11.6l36.7-36.7L56.7,6L20,42.7z"/>
	<path class="st4" d="M522.7,536.9l-32.1-5.6l-10.3-30.6l40.9-48.3l42.4,36.1L522.7,536.9z"/>
	<path class="st5" d="M486.9,519.1l-10.3-30.6l40.9-48.3l10.3,30.6L486.9,519.1z"/>
	<path class="st5" d="M486.9,519.1l32.2,5.5l40.9-48.4l-32.2-5.4L486.9,519.1z"/>
	<path class="st5" d="M518.9,524.6l-42.4-36.1l40.9-48.3l42.4,36.1L518.9,524.6z"/>
	<path class="st4" d="M1299.9,383.7c17.6,0,31.9-14.3,31.9-31.9c0-17.6-14.3-31.9-31.9-31.9c-17.6,0-31.9,14.3-31.9,31.9
		C1268,369.5,1282.3,383.7,1299.9,383.7z"/>
</g>
</svg>
